X:12002
T:Leaving of Liverpool, The
R:Air
C:Trad. Song
O:England
M:2/4
L:1/4
Q:1/4=120
K:D
D/2E/2|"D"F-F/2A/2|"D7"G/2F/2 E/2D/2|"G"d-d/2B/2|"D"A "A7"D/2E/2|"D"F-F/2A/2|"Bm"B A/2F/2|"Em"E2-|"A7"E D/2E/2|
"D"F-F/2A/2|"D7"G/2F/2 E/2D/2|"G"d-d/2B/2|"D"A "A7"D/2E/2|"D"F/2A/2 "Bm"A/2F/2|"Em"E/2G/2 "A7"F/2E/2|"D"D2-|D c/2d/2||
"A7"e-e/2c/2|A c/2e/2|"G"d-d/2B/2|"D"A "A7"D/2E/2|"D"F/2A/2 A/2A/2|"Bm"^G/2A/2 B/2A/2|"E7"E2-|"A7"E/2A/2 A/2G/2|
"D"F-F/2A/2|"D7"G/2F/2 E/2D/2|"G"d-d/2B/2|"D"A "A7"D/2E/2|"D"F/2A/2 "Bm"A/2F/2|"Em"E/2G/2 "A7"F/2E/2|"D"D2-|D|]

